X:121
T:Happy to Meet  
B:CRE 2.028 (RÃÂÃÂÃÂÃÂ­mÃÂÃÂÃÂÃÂ©ad ar ChastÃÂÃÂÃÂÃÂ¡il)
F:file ID: cre.2/121happy
N:Slightly different from "Happy to Meet, Sorry to Part" 
in O'Neill's (file ID: onmi/onmi.jigs/151happy)
Q:160
L:1/8
M:6/8
R:jig
K:G
d|ged BAB|GED G2A|B2e edB|dBA ABd|
ged BAB|GED G2A|B2e dBA|BGG G2:|
|:B/d/|gag ged|BAB d2d|eaa aga|bag egd|
ged BAB|GED G2A|Bee dBA|BGG G2:|

%%%

